X:219
T: Der lobgesang Gott der Vatter won uns bey
N: A0569B
O: Europa, Mitteleuropa, Deutschland
N: Walthers Gsgb 1524 No. 34.
R: Romanze, Ballade, Lied, religioeses Lied
M: 4/1
L: 1/2
K: F
 |  | c2c2d2e2 | f2f2e2
d2 | f2c2A2B2 | A4G4F4
c2c2d2e2 | f2f2e2
d2 | f2c2A2B2 | A4G4F4
F2G2A2A2 | F2G2A2z
f | e2f2g3f | e4d4c2
F2 | c2f2e2c2 | dcB2A2z
G | A2A2c3B | A4G4F4
F2G2A2A2 | F2G2A2z
f | e2f2g3f | e4d4c2
F2 | c2f2e2c2 | dcB2A2z
G | A2A2c3B | A4G4F4
F2G2A2A2 | F2G2A2z
A | c3BA2B2 | A2G2F4

@@@ Tune index: 532
